src/assets/duotone/QuoteUpCircle.svg

<svg width="24" height="24" viewBox="0 0 24 24"  xmlns="http://www.w3.org/2000/svg">
<path opacity="0.4" d="M12 22C17.5228 22 22 17.5228 22 12C22 6.47715 17.5228 2 12 2C6.47715 2 2 6.47715 2 12C2 17.5228 6.47715 22 12 22Z" />
<path d="M15.8099 7.21997H14.3199C13.2299 7.21997 12.3799 8.06997 12.3799 9.15997V10.65C12.3799 11.74 13.2299 12.59 14.3199 12.59H16.2299C16.1499 14.4 15.7299 14.67 14.5199 15.38C14.1599 15.59 14.0499 16.05 14.2599 16.41C14.3999 16.65 14.6499 16.78 14.9099 16.78C15.0399 16.78 15.1699 16.75 15.2899 16.68C17.0799 15.62 17.7499 14.93 17.7499 11.85V9.17999C17.7499 8.08999 16.8799 7.21997 15.8099 7.21997Z" />
<path d="M9.67999 7.21997H8.19C7.1 7.21997 6.25 8.06997 6.25 9.15997V10.65C6.25 11.74 7.1 12.59 8.19 12.59H10.1C10.02 14.4 9.6 14.67 8.39 15.38C8.03 15.59 7.92 16.05 8.13 16.41C8.27 16.65 8.52 16.78 8.78 16.78C8.91 16.78 9.04 16.75 9.16 16.68C10.95 15.62 11.62 14.93 11.62 11.85V9.17999C11.61 8.08999 10.74 7.21997 9.67999 7.21997Z" />
</svg>

<?xml version="1.0" encoding="UTF-8"?>
<svg width="24" height="24" viewBox="0 0 24 24" xmlns="http://www.w3.org/2000/svg">
 <path d="m12 22c5.5228 0 10-4.4772 10-10 0-5.5228-4.4772-10-10-10-5.5228 0-10 4.4772-10 10 0 5.5228 4.4772 10 10 10z" opacity=".4"/>
 <path d="m15.81 7.22h-1.49c-1.09 0-1.94 0.85-1.94 1.94v1.49c0 1.09 0.85 1.94 1.94 1.94h1.91c-0.08 1.81-0.5 2.08-1.71 2.79-0.36 0.21-0.47 0.67-0.26 1.03 0.14 0.24 0.39 0.37 0.65 0.37 0.13 0 0.26-0.03 0.38-0.1 1.79-1.06 2.46-1.75 2.46-4.83v-2.67c0-1.09-0.87-1.96-1.94-1.96z"/>
 <path d="m9.68 7.22h-1.49c-1.09 0-1.94 0.85-1.94 1.94v1.49c0 1.09 0.85 1.94 1.94 1.94h1.91c-0.08 1.81-0.5 2.08-1.71 2.79-0.36 0.21-0.47 0.67-0.26 1.03 0.14 0.24 0.39 0.37 0.65 0.37 0.13 0 0.26-0.03 0.38-0.1 1.79-1.06 2.46-1.75 2.46-4.83v-2.67c-0.01-1.09-0.88-1.96-1.94-1.96z"/>
</svg>
